public/img/pricing/logo-1.svg

<svg width="175" height="40" viewBox="0 0 175 40" fill="none" xmlns="http://www.w3.org/2000/svg">
<path fill-rule="evenodd" clip-rule="evenodd" d="M20.3198 27.6345C16.2047 27.6345 12.7883 24.2182 12.7883 20.103C12.7883 15.9879 16.127 12.5715 20.3198 12.5715C24.4349 12.5715 27.8513 15.9102 27.8513 20.103C27.8513 24.2182 24.4349 27.6345 20.3198 27.6345ZM20.3198 16.7643C18.4563 16.7643 16.9811 18.2395 16.9811 20.103C16.9811 21.9665 18.4563 23.4417 20.3198 23.4417C22.1833 23.4417 23.6585 21.9665 23.6585 20.103C23.6585 18.2395 22.1833 16.7643 20.3198 16.7643Z" fill="#61B2AA"/>
<path fill-rule="evenodd" clip-rule="evenodd" d="M0.365234 19.7148C0.365234 35.4766 4.1698 39.2811 19.9316 39.2811C35.6934 39.2811 39.4979 35.4766 39.4979 19.7148C39.4979 3.95301 35.6934 0.148438 19.9316 0.148438C4.1698 0.148438 0.365234 3.95301 0.365234 19.7148ZM4.55802 19.7148C4.55802 6.35998 6.57677 4.34123 19.9316 4.34123C33.2864 4.34123 35.3051 6.35998 35.3051 19.7148C35.3051 33.0696 33.2864 35.0883 19.9316 35.0883C6.57677 35.0883 4.55802 33.0696 4.55802 19.7148Z" fill="#61B2AA"/>
<path fill-rule="evenodd" clip-rule="evenodd" d="M52.3869 28.5668V6.67116H55.7256V14.2803C56.4244 13.5815 57.2785 13.1156 58.1325 12.8827C59.0643 12.5721 59.996 12.4945 60.9277 12.4945C62.1701 12.4945 63.2571 12.7274 64.2664 13.1156C65.2758 13.5039 66.0523 14.125 66.7511 14.9015C67.4498 15.6779 67.9934 16.532 68.3039 17.5414C68.6922 18.5507 68.8475 19.6378 68.8475 20.7248C68.8475 21.8894 68.6922 22.9764 68.3039 23.9858C67.9157 24.9952 67.4498 25.8493 66.7511 26.6257C66.0523 27.4022 65.1982 27.9457 64.2664 28.4116C63.2571 28.7998 62.1701 29.0327 60.9277 29.0327C59.9184 29.0327 58.9866 28.8774 58.0549 28.5668C57.1232 28.2563 56.3467 27.7904 55.5703 27.0916V28.5668H52.3869ZM65.5087 20.8024C65.5087 20.026 65.4311 19.3272 65.1982 18.706C64.9652 18.0849 64.6546 17.5414 64.2664 17.0755C63.8782 16.6096 63.3347 16.2214 62.7912 15.9885C62.1701 15.6779 61.5489 15.6002 60.6948 15.6002C59.9184 15.6002 59.2196 15.7555 58.5984 15.9885C57.9773 16.2214 57.4337 16.6096 57.0455 17.0755C56.6573 17.5414 56.2691 18.0849 56.0362 18.706C55.8032 19.3272 55.7256 20.026 55.7256 20.7248C55.7256 21.4236 55.8032 22.1224 56.0362 22.8212C56.2691 23.4423 56.5797 23.9858 57.0455 24.4517C57.5114 24.9176 57.9773 25.3058 58.5984 25.5387C59.2196 25.7716 59.9184 25.9269 60.6948 25.9269C61.4713 25.9269 62.1701 25.7716 62.7912 25.5387C63.4124 25.2281 63.8782 24.9176 64.2664 24.4517C64.6546 23.9858 64.9652 23.4423 65.1982 22.8212C65.4311 22.2 65.5087 21.5012 65.5087 20.8024Z" fill="#61B2AA"/>
<path d="M84.6092 27.1692C83.9104 27.7904 83.2116 28.1786 82.3576 28.4892C81.5035 28.7998 80.6494 28.8774 79.7177 28.8774C78.7083 28.8774 77.7765 28.7221 76.9225 28.4116C76.0684 28.101 75.3696 27.6351 74.7484 27.0916C74.1273 26.4704 73.739 25.8493 73.3508 24.9952C73.0402 24.1411 72.8849 23.287 72.8849 22.2777V12.8827H76.2237V22.2C76.2237 24.607 77.466 25.8493 79.9506 25.8493C80.727 25.8493 81.4258 25.694 81.9693 25.4611C82.5128 25.2281 82.9787 24.8399 83.3669 24.374C83.7551 23.9082 83.9881 23.3647 84.221 22.7435C84.3763 22.1224 84.5316 21.4236 84.5316 20.7248V12.8827H87.8703V28.6445H84.6092V27.1692Z" fill="#61B2AA"/>
<path d="M106.738 15.212L97.11 25.5387H106.971V28.5668H92.1407V26.1599L101.769 15.8332H92.3736V12.8051H106.738V15.212Z" fill="#61B2AA"/>
<path d="M124.751 15.212L115.123 25.5387H124.984V28.5668H110.154V26.1599L119.782 15.8332H110.387V12.8051H124.751V15.212Z" fill="#61B2AA"/>
<path d="M151.15 15.9108H145.871V28.6445H142.377V15.9108H137.407V12.8827H142.377C142.377 11.4851 142.532 10.3981 142.842 9.62164C143.153 8.76755 143.619 8.1464 144.24 7.68054C144.861 7.21467 145.638 6.98174 146.569 6.82645C147.501 6.67116 148.588 6.59352 149.83 6.59352H151.306V9.69929H149.132C148.355 9.69929 147.812 9.69929 147.346 9.77693C146.958 9.85458 146.569 10.0099 146.336 10.1651C146.103 10.3981 146.026 10.7087 145.948 11.0969C145.871 11.4851 145.871 12.1063 145.871 12.8051H151.15V15.9108Z" fill="#61B2AA"/>
<path d="M156.12 11.5627C155.421 11.5627 154.877 11.3298 154.411 10.9416C153.946 10.4757 153.713 9.93222 153.713 9.23342C153.713 8.53462 153.946 7.99111 154.411 7.60289C154.877 7.13703 155.498 6.90409 156.12 6.90409C156.818 6.90409 157.362 7.13703 157.828 7.60289C158.294 8.06876 158.527 8.61226 158.527 9.23342C158.527 9.93222 158.294 10.4757 157.828 10.9416C157.362 11.4075 156.741 11.5627 156.12 11.5627Z" fill="#61B2AA"/>
<path d="M154.411 12.8827H157.75V28.6445H154.411V12.8827Z" fill="#61B2AA"/>
<path d="M174.133 15.9108H169.164V23.3647C169.164 23.6752 169.164 23.9082 169.241 24.2188C169.319 24.6846 169.397 24.9952 169.474 25.0728C169.63 25.2281 169.863 25.3058 170.328 25.3834C170.95 25.4611 171.571 25.4611 172.27 25.4611H174.133V28.5668H172.192C171.027 28.5668 170.018 28.4892 169.241 28.3339C168.387 28.1786 167.766 27.868 167.223 27.4798C166.679 27.0916 166.291 26.4704 166.058 25.694C165.825 24.9176 165.747 23.9082 165.747 22.7435V15.8332H161.089V12.8051H165.747V7.75818H169.164V12.9603H174.133V15.9108Z" fill="#61B2AA"/>
</svg>

<svg width="175" height="40" fill="none" xmlns="http://www.w3.org/2000/svg"><path fill-rule="evenodd" clip-rule="evenodd" d="M20.32 27.634c-4.115 0-7.532-3.416-7.532-7.531s3.339-7.532 7.532-7.532c4.115 0 7.531 3.34 7.531 7.532 0 4.115-3.416 7.531-7.531 7.531zm0-10.87a3.314 3.314 0 0 0-3.339 3.339 3.314 3.314 0 0 0 3.339 3.339 3.314 3.314 0 0 0 3.338-3.339 3.314 3.314 0 0 0-3.338-3.339z" fill="#61B2AA"/><path fill-rule="evenodd" clip-rule="evenodd" d="M.365 19.715c0 15.762 3.805 19.566 19.567 19.566 15.761 0 19.566-3.804 19.566-19.566C39.498 3.953 35.693.148 19.932.148 4.17.148.365 3.953.365 19.715zm4.193 0C4.558 6.36 6.577 4.34 19.932 4.34c13.354 0 15.373 2.019 15.373 15.374s-2.019 15.373-15.373 15.373c-13.355 0-15.374-2.018-15.374-15.373zm47.829 8.852V6.67h3.339v7.61a5.457 5.457 0 0 1 2.407-1.398c.931-.31 1.863-.388 2.795-.388a9.13 9.13 0 0 1 3.338.62c1.01.389 1.786 1.01 2.485 1.787.699.776 1.242 1.63 1.553 2.64.388 1.009.543 2.096.543 3.183 0 1.164-.155 2.251-.543 3.26-.388 1.01-.854 1.864-1.553 2.64-.699.777-1.553 1.32-2.485 1.787a9.13 9.13 0 0 1-3.338.62 8.91 8.91 0 0 1-2.873-.465c-.932-.31-1.708-.777-2.485-1.475v1.475h-3.183zm13.122-7.765c0-.776-.078-1.475-.31-2.096a5.588 5.588 0 0 0-.933-1.63 4.054 4.054 0 0 0-1.475-1.088c-.62-.31-1.242-.388-2.096-.388-.777 0-1.475.155-2.097.389a3.75 3.75 0 0 0-1.553 1.087c-.388.465-.776 1.009-1.009 1.63-.233.621-.31 1.32-.31 2.019 0 .699.077 1.397.31 2.096.233.621.544 1.165 1.01 1.63.465.467.931.855 1.552 1.088a5.93 5.93 0 0 0 2.097.388c.776 0 1.475-.155 2.096-.388.621-.31 1.087-.621 1.475-1.087.389-.466.7-1.01.932-1.63.233-.622.31-1.32.31-2.02z" fill="#61B2AA"/><path d="M84.61 27.17c-.7.62-1.398 1.009-2.252 1.32-.855.31-1.709.387-2.64.387-1.01 0-1.942-.155-2.796-.465-.854-.311-1.552-.777-2.174-1.32-.62-.622-1.009-1.243-1.397-2.097a7.68 7.68 0 0 1-.466-2.717v-9.395h3.339V22.2c0 2.407 1.242 3.65 3.727 3.65.776 0 1.475-.156 2.018-.389.544-.233 1.01-.621 1.398-1.087.388-.466.621-1.01.854-1.63.155-.622.31-1.32.31-2.02v-7.841h3.34v15.762h-3.262v-1.476zm22.128-11.958L97.11 25.539h9.861v3.028h-14.83V26.16l9.628-10.327h-9.395v-3.028h14.364v2.407zm18.013 0l-9.628 10.327h9.861v3.028h-14.83V26.16l9.628-10.327h-9.395v-3.028h14.364v2.407zm26.399.699h-5.279v12.734h-3.494V15.91h-4.97v-3.028h4.97c0-1.398.155-2.485.465-3.261.311-.854.777-1.476 1.398-1.941.621-.466 1.398-.7 2.329-.855.932-.155 2.019-.232 3.261-.232h1.476v3.105h-2.174c-.777 0-1.32 0-1.786.078-.388.078-.777.233-1.01.388-.233.233-.31.544-.388.932-.077.388-.077 1.01-.077 1.708h5.279v3.106zm4.97-4.348a2.56 2.56 0 0 1-1.709-.621c-.465-.466-.698-1.01-.698-1.709 0-.698.233-1.242.698-1.63a2.41 2.41 0 0 1 1.709-.699c.698 0 1.242.233 1.708.699.466.466.699 1.01.699 1.63 0 .7-.233 1.243-.699 1.709-.466.466-1.087.62-1.708.62zm-1.709 1.32h3.339v15.762h-3.339V12.883zm19.722 3.028h-4.969v7.454c0 .31 0 .543.077.854.078.466.156.776.233.854.156.155.389.233.854.31.622.078 1.243.078 1.942.078h1.863v3.106h-1.941c-1.165 0-2.174-.078-2.951-.233a4.81 4.81 0 0 1-2.018-.854c-.544-.388-.932-1.01-1.165-1.786-.233-.776-.311-1.786-.311-2.95v-6.91h-4.658v-3.029h4.658V7.758h3.417v5.202h4.969v2.95z" fill="#61B2AA"/></svg>
